X:1
T:O filii et filiae
T:O filii et filiae
%%score [ 1 2 3 4 ]
L:1/8
Q:1/4=90
M:6/8
K:Gmin
V:1 treble nm="Soprano"
V:2 treble nm="Alto"
V:3 treble-8 nm="Tenor"
V:4 bass nm="Bass"
V:1
 G | G2 A (GF)G |[M:3/8] (BA)G |[M:6/8] D2 A B A2 | G3- G2 G | G2 A (GF)G |[M:3/8] (BA)G | %7
w: Al-|le- lu- ia, _ al-|le- * lu-|ia, al- le- lu-|ia. _ Al-|le- lu- ia, _ al-|le- * lu-|
[M:6/8] D2 A B A2 | G6 || GBc (dc)B | (cB)A G3 | (GB)c (dc)B | (cB)A G3 | GGA (GF)G | %14
w: ia, al- le- lu-|ia.|O fi- li- i _ et|fi- * li- ae,|Rex _ cae- les- * tis|glo- * ri- ae|mor- te sur- re- * xit|
[M:3/8] (BA)G |[M:6/8] D2 A B A2 | G4- G || G | G2 A (GF)G |[M:3/8] (BA)G |[M:6/8] D2 d d c2 | %21
w: ho- * di-|e, al- le- lu-|ia. _|Al-|le- lu- ia, _ al-|le- * lu-|ia, al- le- lu-|
 d6 || z6 | z6 | z6 | z6 | z6 |[M:3/8] z3 |[M:6/8] z6 | z5 || G | G2 A (GF)G |[M:3/8] (BA)G | %33
w: ia.|||||||||Al-|le- lu- ia, _ al-|le- * lu-|
[M:6/8] D2 A B A2 | G6 || GBc (dc)B | (cB)A G3 | GBc (dc)B | (cB)A G3 | GGA (GF)G |[M:3/8] (BA)G | %41
w: ia, al- le- lu-|ia.|In hoc fes- to _ sanc-|tis- * si- mo|sit laus et iu- * bi-|la- * ti- o:|be- ne- di- ca- * mus|Do- * mi-|
[M:6/8] D2 A B A2 | G4- G || d | d2 c (BA)B |[M:3/8] c2 d |[M:6/8] d2 d c d2 | d6 || ddd (de)d | %49
w: no, al- le- lu-|ia. _|Al-|le- lu- ia, _ al-|le- lu-|ia, al- le- lu-|ia.|De qui- bus non _ hu-|
 (cB)c d3 | ddd (de)d | (cB)c d3 | GGA (GF)G |[M:3/8] (BA)G |[M:6/8] D2 d d e2 | d4- d || G | %57
w: mi- * li- mas|de- vo- tas at- * que|de- * bi- tas|De- o di- ca- * mus|gra- * ti-|as, al- le- lu-|ia. _|Al-|
 G2 A (GF)G |[M:3/8] (BA)G |[M:6/8] !breath!D2"^rit." A B A2 | G6 |] %61
w: le- lu- ia, _ al-|le- * lu-|ia, al- le- lu-|ia.|
V:2
 G | G2 F (GA)G |[M:3/8] (GF)G |[M:6/8] G2 F F D2 | E3- E2 E | D2 D (DD)D |[M:3/8] (EF)G | %7
w: Al-|le- lu- ia, _ al-|le- * lu-|ia, al- le- lu-|ia. _ Al-|le- lu- ia, _ al-|le- * lu-|
[M:6/8] A2 A G F2 | D6 || GFG (AG)F | (GF)E D3 | (GG)A (BA)G | (AG)F G3 | DDE (DC)D | %14
w: ia, al- le- lu-|ia.|O fi- li- i _ et|fi- * li- ae,|Rex _ cae- les- * tis|glo- * ri- ae|mor- te sur- re- * xit|
[M:3/8] (ED)C |[M:6/8] D2 D D D2 | D4- D || G | G2 A GFG |[M:3/8] (BA)G |[M:6/8] D2 A B A2 | G6 || %22
w: ho- * di-|e, al- le- lu-|ia. _|Al-|le- lu- ia, _ al-|le- * lu-|ia, al- le- lu-|ia.|
 GGG G2 G | G2 G G3 | GGG G2 G | G2 G G3 | GGG GGG |[M:3/8] (GA)B |[M:6/8] A2 F G A2 | =B4- B || %30
w: In al- bis se- dens|an- ge- lus|prae- di- xit mu- li-|e- ri- bus:|'In Ga- li- lae- a est|Do- * mi-|nus, al- le- lu-|ia.' _|
 G | G2 A (GF)G |[M:3/8] (BA)G |[M:6/8] D2 D =E ^F2 | G6 || GGA (GG)G | (FG)A B3 | GGA (GG)G | %38
w: Al-|le- lu- ia, _ al-|le- * lu-|ia, al- le- lu-|ia.|In hoc fes- to _ sanc-|tis- * si- mo|sit laus et iu- * bi-|
 (FG)A B3 | BBA (GF)E |[M:3/8] (DD)G |[M:6/8] F2 F E D2 | D4- D || G | G2 A (GF)G |[M:3/8] (BA)G | %46
w: la- * ti- o:|be- ne- di- ca- * mus|Do- * mi-|no, al- le- lu-|ia. _|Al-|le- lu- ia, _ al-|le- * lu-|
[M:6/8] D2 A B A2 | G6 || GGG (GG)G | (GG)A B3 | GGG (GG)G | (GG)A B3 | GGA (GF)G |[M:3/8] (BA)G | %54
w: ia, al- le- lu-|ia.|De qui- bus non _ hu-|mi- * li- mas|de- vo- tas at- * que|de- * bi- tas|De- o di- ca- * mus|gra- * ti-|
[M:6/8] D2 B B A2 | G4- G || G | G2 A (GF)G |[M:3/8] (BA)G |[M:6/8] !breath!D2"^rit." D =E ^F2 | %60
w: as, al- le- lu-|ia. _|Al-|le- lu- ia, _ al-|le- * lu-|ia, al- le- lu-|
 D6 |] %61
w: ia.|
V:3
 G | G2 A (BA)B |[M:3/8] (cd)e |[M:6/8] d2 d c A2 | B3- B2 B | c2 c (cc)c |[M:3/8] (cd)e | %7
w: Al-|le- lu- ia, _ al-|le- * lu-|ia, al- le- lu-|ia. _ Al-|le- lu- ia, _ al-|le- * lu-|
[M:6/8] f2 f d A2 | B6 || z6 | z6 | (dd)d (cd)e | (fe)c d3 | z6 |[M:3/8] z3 |[M:6/8] z2 d c A2 | %16
w: ia, al- le- lu-|ia.|||Rex _ cae- les- * tis|glo- * ri- ae|||al- le- lu-|
 =B4- B || G | G2 A (GF)G |[M:3/8] (BA)G |[M:6/8] D2 A B c2 | d6 || GBc (dc)B | (cB)A G3 | %24
w: ia. _|Al-|le- lu- ia, _ al-|le- * lu-|ia, al- le- lu-|ia.|In al- bis se- * dens|an- * ge- lus|
 GBc (dc)B | (cB)A G3 | GGA GFG |[M:3/8] (BA)G |[M:6/8] D2 A B A2 | G4- G || G | G2 A (GF)G | %32
w: prae- di- xit mu- * li-|e- * ri- bus:|'In Ga- li- lae- a est|Do- * mi-|nus, al- le- lu-|ia.' _|Al-|le- lu- ia, _ al-|
[M:3/8] (BA)G |[M:6/8] D2 d d c2 | d6 || ddc (BA)G | (AB)c d3 | ddc (BA)G | (AB)c d3 | ddc (BA)B | %40
w: le- * lu-|ia, al- le- lu-|ia.|In hoc fes- to _ sanc-|tis- * si- mo|sit laus et iu- * bi-|la- * ti- o:|be- ne- di- ca- * mus|
[M:3/8] (cd)e |[M:6/8] d2 d d c2 | B4- B || B | B2 c (de)f |[M:3/8] d2 c |[M:6/8] B2 c d e2 | d6 || %48
w: Do- * mi-|no, al- le- lu-|ia. _|Al-|le- lu- ia, _ al-|le- lu-|ia, al- le- lu-|ia.|
 ddc (Bc)d | (ee)f d3 | ddc (Bc)d | (ee)f d3 | GGA (GF)G |[M:3/8] (BA)G |[M:6/8] d2 f f c2 | %55
w: De qui- bus non _ hu-|mi- * li- mas|de- vo- tas at- * que|de- * bi- tas|De- o di- ca- * mus|gra- * ti-|as, al- le- lu-|
 d4- d || G | G2 A (GF)G |[M:3/8] (BA)G |[M:6/8] !breath!d2"^rit." d c A2 | B6 |] %61
w: ia. _|Al-|le- lu- ia, _ al-|le- * lu-|ia, al- le- lu-|ia.|
V:4
 G,, | G,,2 G,, (G,,G,,)G,, |[M:3/8] (A,,B,,)C, |[M:6/8] D,2 D, G, F,2 | E,3- E,2 E, | %5
w: Al-|le- lu- ia, _ al-|le- * lu-|ia, al- le- lu-|ia. _ Al-|
 E,2 D, (C,C,)C, |[M:3/8] (E,E,)E, |[M:6/8] D,2 D, D, D,2 | G,,6 || z6 | z6 | (G,F,)E, (C,D,)E, | %12
w: le- lu- ia, _ al-|le- * lu-|ia, al- le- lu-|ia.|||Rex _ cae- les- * tis|
 (D,D,)D, G,,3 | z6 |[M:3/8] z3 |[M:6/8] z2 D, A,, C,2 | G,,4- G,, || G, | G,2 A, (G,F,)G, | %19
w: glo- * ri- ae|||al- le- lu-|ia. _|Al-|le- lu- ia, _ al-|
[M:3/8] (B,A,)G, |[M:6/8] D,2 D, C, A,,2 | G,,6 || G,F,E, D,2 D, | C,2 C, D,3 | %24
w: le- * lu-|ia, al- le- lu-|ia.|In al- bis se- dens|an- ge- lus|
 G,,G,,A,, (B,,C,)D, | (E,D,)C, D,3 | G,F,E, D,C,B,, |[M:3/8] (A,,B,,)C, |[M:6/8] D,2 C, A,, D,2 | %29
w: prae- di- xit mu- * li-|e- * ri- bus:|'In Ga- li- lae- a est|Do- * mi-|nus, al- le- lu-|
 G,,4- G,, || G, | G,2 A, (G,F,)G, |[M:3/8] (B,A,)G, |[M:6/8] D,2 C, A,, D,2 | G,,6 || z6 | z6 | %37
w: ia.' _|Al-|le- lu- ia, _ al-|le- * lu-|ia, al- le- lu-|ia.|||
 z6 | z6 | z6 |[M:3/8] z3 |[M:6/8] z6 | z5 || G, | (G,F,)E, (D,C,)D, |[M:3/8] E,2 E, | %46
w: ||||||Al-|le- * lu- ia, _ al-|le- lu-|
[M:6/8] D,2 D, D, D,2 | G,,6 || G,,B,,C, (D,C,)B,, | (C,B,,)A,, G,,3 | G,,B,,C, (D,C,)B,, | %51
w: ia, al- le- lu-|ia.|De qui- bus non _ hu-|mi- * li- mas|de- vo- tas at- * que|
 (C,B,,)A,, G,,3 | G,G,A, (G,F,)G, |[M:3/8] (B,A,)G, |[M:6/8] D,2 D, D, D,2 | G,,4- G,, || G, | %57
w: de- * bi- tas|De- o di- ca- * mus|gra- * ti-|as, al- le- lu-|ia. _|Al-|
 G,2 A, (G,F,)G, |[M:3/8] (B,A,)G, |[M:6/8] !breath!D,2"^rit." D, C, A,,2 | G,,6 |] %61
w: le- lu- ia, _ al-|le- * lu-|ia, al- le- lu-|ia.|

